X:1
T:Deeper and Deeper
T:Deeper and Deeper
T:Oswald Jeffrey Smith
T:Oswald Jeffrey Smith, 1914
T:Public Domain Courtesy of the Cyber Hymnal™
T:Public Domain Courtesy of the Cyber Hymnal™
C:Oswald Jeffrey Smith
Z:Public Domain
Z:Courtesy of the Cyber Hymnal™
%%score ( 1 2 ) ( 3 4 )
L:1/8
Q:1/4=170
M:6/4
K:Db
V:1 treble 
V:2 treble 
V:3 bass 
V:4 bass 
V:1
 [DF]2 [DF]2 [DF]2 [DF]4 [EG]2 | [FA]6 [FA]6 | [DF]2 [EG]2 [FA]2 [Gd]3 [Ac] [GB]2 | [FA]12 | %4
w: 1.~In- to the heart of|Je- sus|Deep- er and deep- er I|go,|
w: 2.~In- to the will of|Je- sus,|Deep- er and deep- er I|go,|
w: 3.~In- to the cross of|Je- sus|Deep- er and deep- er I|go,|
w: 4.~In- to the joy of|Je- sus|Deep- er and deep- er I|go,|
w: 5.~In- to the love of|Je- sus|Deep- er and deep- er I|go,|
 E2 E2 E2 [CE]4 [DF]2 | [EG]6 [EG]6 | [DF]2 [DG]2 [DA]2 [DB]4 [CG]2 | [DF]12 | %8
w: Seek- ing to know the|rea- son|Why He should love me|so,|
w: Pray- ing for grace to|fol- low,|Seek- ing His way to|know;|
w: Fol- low- ing through the|gar- den,|Fac- ing the dread- ed|foe;|
w: Ris- ing, with soul en-|rap- tured,|Far from the world be-|low.|
w: Prais- ing the One Who|brought me|Out of my sin and|woe;|
 [DF]2 [DF]2 [DF]2 [DF]4 [EG]2 | [FA]6 [FA]6 | [DF]2 [EG]2 [FA]2 d4 [Ac]2 | [GB]12 | %12
w: Why He should stoop to|lift me|Up from the mir- y|clay,|
w: Bow- ing in full sur-|ren- der|Low at His bless- èd|feet,|
w: Drink- ing the cup of|sor- row,|Sob- bing with brok- en|heart,|
w: Joy in the place of|sor- row,|Peace in the midst of|pain,|
w: And through e- ter- nal|ag- es|Grate- ful- ly I shall|sing,|
 [Gd]2 [Ac]2 [GB]2 [FA]6 | [GB]2 [FA]2 [EG]2 [DF]6 | [CE]2 [CF]2 [CG]2 [CA]2 [CG]2 [CE]2 | %15
w: Sav- ing my soul,|mak- ing me whole,|Though I had wan- dered a-|
w: Bid- ding Him take,|break me and make,|Till I am mol- ded, com-|
w: “O Sav- ior, help!|Dear Sav- ior, help!|Grace for my weak- ness im-|
w: Je- sus will give,|Je- sus will give;|He will up- hold and sus-|
w: “O how He loved!|O how He loved!|Je- sus, my Lord and my|
 [A,D]12 |] %16
w: way.|
w: plete.|
w: part.”|
w: tain.|
w: king!”|
V:2
 x12 | x12 | x12 | x12 | E2 E2 E2 x6 | x12 | x12 | x12 | x12 | x12 | x6 (F2 G2) x2 | x12 | x12 | %13
 x12 | x12 | x12 |] %16
V:3
 [D,A,]2 [D,A,]2 [D,A,]2 [D,A,]4 [D,A,]2 | [D,D]6 [D,D]6 | %2
 [D,A,]2 [D,A,]2 [D,A,]2 [D,A,]3 [D,C] [D,D]2 | [D,D]12 | [A,C]2 [A,C]2 [A,C]2 [G,A,]4 [F,A,]2 | %5
 [E,B,]6 [C,A,]6 | [D,A,]2 [E,A,]2 [F,A,]2 G,4 [E,A,]2 | [D,A,]12 | %8
 [D,A,]2 [D,A,]2 [D,A,]2 [D,A,]4 [D,A,]2 | [D,D]6 [D,D]6 | [D,A,]2 [D,A,]2 [D,A,]2 A,4 [F,D]2 | %11
 [G,D]12 | [G,B,]2 [G,C]2 [G,D]2 [D,D]6 | [A,,C]2 [A,,C]2 [C,A,]2 [D,A,]6 | %14
 [G,A,]2 [F,A,]2 [E,A,]2 [A,,G,]2 [A,,E,]2 [A,,G,]2 | [D,F,]12 |] %16
V:4
 x12 | x12 | x12 | x12 | x12 | x12 | x6 G,4 x2 | x12 | x12 | x12 | x6 (D,2 E,2) x2 | x12 | x12 | %13
 x12 | x12 | x12 |] %16

